X:1
T:Cœna Domini, 10.10
T:Cœna Domini, 10.10
T:Arthur Seymour Sullivan, 1874
T:Public Domain Courtesy of the Cyber Hymnal™
C:Arthur Seymour Sullivan, 1874
Z:Public Domain
Z:Courtesy of the Cyber Hymnal™
%%score ( 1 2 ) 3
L:1/8
Q:1/4=115
M:4/4
K:Eb
V:1 treble 
V:2 treble 
V:3 bass 
V:1
 [EG]4 [DF]2 E2 | [DA]4 [EG]4 | F2 [EG]2 E2 [CF]2 | [B,D]8 | [B,E]4 [A,A]2 [B,G]2 | %5
 [CF]2 [Dc]2 [EB]2 E2 | G6 z2 F2 | E8 |] %8
V:2
 x6 E2 | x8 | F2 E2 x4 | x8 | x8 | x6 E2 | E4 D4 x2 | E8 |] %8
V:3
 [E,B,]4 [A,B,]2 [G,B,]2 | [F,B,]4 [E,B,]4 | [D,B,]2 [E,B,]2 [C,B,]2 [F,=A,]2 | [B,,F,]8 | %4
 [G,,E,]4 [C,E,]2 [B,,E,]2 | [A,,E,]2 [A,,F,]2 [G,,G,]2 [C,A,]2 | [B,,B,]4 [B,,A,]4 x2 | [E,G,]8 |] %8

